X: 109
T: A Bottle Of Vodka, Twenty Marlboro Reds And £50 Cashback, Please
R: jig
M: 6/8
K: Dmajor
a2d dcd|Bcd cBA|BGB cBd-|dcA Bag|
f2d dcd|Bcd cBa|Bcd c3|1 cde de/f/g:|2 cde dcA||

